X:1
T:Have You Any Room for Jesus, 87. 87 D
T:C. C. Williams (?-1882)
T:Have You Any Room for Jesus, 87. 87 D
T:Public Domain
T:Public Domain
C:C. C. Williams (?-1882)
Z:Public Domain
%%score 1 ( 2 3 )
L:1/8
M:4/4
K:C
V:1 treble 
V:2 bass 
V:3 bass 
V:1
 [EG]3 [FA] [EG][Ec] [GB]>[FA] | [FA]4 [EG]4 | [DF]3 [^CE] [DF][EG] [FA]>[EG] | ([EG]4 [CE]4) | %4
w: 1.~Have you a- ny room for|Je- sus,|He who bore your load of|sin? *|
w: 2.~Room for plea- sure, room for|busi- ness,|But for Christ the Cru- ci-|fied, *|
w: 3.~Have you a- ny room for|Je- sus,|As in grace He calls a-|gain? *|
w: 4.~Room and time now give to|Je- sus,|Soon will pass God’s day of|grace; *|
 [EG]3 [FA] [EG][Ec] [GB]>[FA] | [FA]4 [EG]4 | [DF]3 [^CE] [DF][EG] [FA]>[FB] | [Ec]8 || %8
w: As He knocks and asks ad-|mis- sion,|Sin- ners, will you let Him|in?|
w: Not a place that He can|en- ter,|In the heart for which He|died?|
w: O to- day is time ac-|cept- ed,~To-|mor- row you may call in|vain.|
w: Soon thy heart left cold and|si- lent,|And thy Sav- ior’s plead- ing|cease.|
"^Refrain" [Fd]3 [Fd] [Fd][Fd] [Ge]>[Fd] | [Ec]4 [EG]4 | [EA]3 [EA] [EA][EA][EB][Ec] | [Fd]8 | %12
w: ||||
w: Room for Je- sus, King of|Glo- ry!|Hast- en now His Word o-|bey;|
w: ||||
w: ||||
 [Ge]3 [Ge] [Af][Ge] [Ec]>[FA] | [EG]4 [CE]4 | [CF]3 [FA] [EG][Ec] [DB]>[FB] | [Ec]8 |] %16
w: ||||
w: Swing the heart’s door wide- ly|o- pen,|Bid Him en- ter while you|may.|
w: ||||
w: ||||
V:2
 [C,C]3 [C,C] [C,C][C,C] [C,C]>[C,C] | [C,C]4 [C,C]4 | [G,B,]3 [G,^A,] [G,B,][G,B,] [G,B,]>[G,B,] | %3
 (C4 G,4) | [C,C]3 [C,C] [C,C][C,G,] [C,A,]>[C,B,] | [C,C]4 [C,C]4 | %6
 [G,B,]3 [G,^A,] [G,B,][G,B,] [G,,G,B,]>[G,,G,] | [C,G,]8 || [G,B,]3 [G,B,] [G,B,][G,B,] [G,C]>G, | %9
 [C,G,]4 [C,C]4 | [A,C]3 [A,C] [A,C][A,C][^G,E][A,C] | [G,B,]8 | %12
 [C,C]3 [C,C] [C,C][C,C] [C,G,]>[C,C] | [C,C]4 [C,G,]4 | [F,A,]3 [F,C] [G,C]G, G,>G, | [C,G,]8 |] %16
V:3
 x8 | x8 | x8 | C,8 | x8 | x8 | x8 | x8 || x8 | x8 | x8 | x8 | x8 | x8 | x8 | x8 |] %16

